X:42
T:Buy Broom Buzzems
Z:Jack Campin, http://www.campin.me.uk/
S:Northumbrian Minstrelsy
M:3/4
L:1/8
K:G
G B d e c A|            \
            G B d e c2 |\
G B d e c A|            \
            B G G E c2||
A2  A2  F D|            \
            G G G B c2 |\
A2  A G F D|            \
            G B c A G2|]

